X: 23669
T: Lindisfarne
R: waltz
M: 3/4
K: Dmajor
A2|d3 e fg|a3 f dA|B2 g2 e2|d3 c A2|
d3 e fg|a3 f dA|B2 g2 f2|e3 e fg|
a3 f dA|B3 d gf|e3 d cB|A3 e fg|
a3 f dA|B2 g2 e2|A<dd2 c2|d4||
f2|e3 f ge|a3 f dA|B2 g2 e2|d3 c A2|
e3 f ge|a3 f dA|B2 g2 f2|e3 e fg|
a3 f dA|B3 d gf|e3 d cB|A3 e fg|
a3 f dA|B2 g2 e2|A<dd2 c2|d4||
A2|dc de fg|ag fe dc|Ba gf ec|d>e dc A2|
dc de fg|ag fe dc|Ba ga fg|e3 e fg|
a/g/f/e/ g/f/e/d/ f/e/d/c/|B3 d gf|g/f/e/d/ f/e/d/c/ e/d/c/B/|A3 e fg|
a/g/f/e/ g/f/e/d/ f/e/d/c/|B2 g2 e2|Add2 c2|d4||
f2|ed ef ge|ag fe dc|Ba gf ec|d>e dc A2|
ed ef ge|ag fe dc|Ba ga fg|e3 e fg|
a/g/f/e/ g/f/e/d/ f/e/d/c/|B3 d gf|g/f/e/d/ f/e/d/c/ e/d/c/B/|A3 e fg|
a/g/f/e/ g/f/e/d/ f/e/d/c/|B2 g2 e2|Add2 c2|d4||

